X: 26385
T: Merry Days Of Easter, The
R: reel
M: 4/4
K: Gmajor
BG G2 DG G2|Bdgd cA A2|BG G2 DGBG|Bdgd BGGA|
B2 BG c2 BA|Bdgd cA A2|BG G2 DG G2|Bdgd Bdga|
bgaf g2 ag|eaag ea a2|bgaf gfed|Bdef g2 ga|
bgaf gefd|eaag eaab|c'2 ba agfd|g2 gf gedc|

